icons/github.svg

<svg width="24" height="24" viewBox="0 0 24 24" fill="none" xmlns="http://www.w3.org/2000/svg">
<path d="M16.269 22C16.0033 22 15.7484 21.8946 15.5605 21.7069C15.3726 21.5192 15.2671 21.2646 15.2671 20.9991V18.3969C15.2982 18.0976 15.2661 17.795 15.1729 17.5089C15.0798 17.2227 14.9275 16.9592 14.726 16.7355C14.6013 16.6003 14.5162 16.4335 14.4802 16.2532C14.4441 16.073 14.4584 15.8863 14.5215 15.7136C14.5847 15.541 14.6942 15.389 14.8381 15.2744C14.982 15.1598 15.1546 15.0871 15.3372 15.064C17.7819 14.7738 20.0362 13.9931 20.0362 9.75948C20.037 8.96888 19.8034 8.19575 19.3649 7.53757C18.9603 6.93168 18.8126 6.19028 18.9541 5.4758C19.0444 5.00972 19.0444 4.53067 18.9541 4.06459C18.2039 4.31798 17.4975 4.68599 16.8601 5.15552C16.7396 5.24101 16.6017 5.29881 16.4562 5.32476C16.3106 5.35072 16.1612 5.34419 16.0185 5.30565C14.2104 4.79527 12.2961 4.79527 10.4879 5.30565C10.3453 5.34419 10.1958 5.35072 10.0503 5.32476C9.90479 5.29881 9.76684 5.24101 9.64633 5.15552C9.00504 4.68055 8.29116 4.31217 7.53228 4.06459C7.437 4.53018 7.437 5.01021 7.53228 5.4758C7.66362 6.19927 7.5092 6.94544 7.10146 7.55759C6.66488 8.22038 6.43157 8.99611 6.43017 9.78951C6.43017 13.6829 8.31378 14.7237 11.1392 15.0841C11.3241 15.107 11.4989 15.1809 11.644 15.2976C11.7891 15.4143 11.8988 15.5691 11.9608 15.7446C12.019 15.9149 12.0302 16.0978 11.9932 16.2739C11.9562 16.4501 11.8723 16.613 11.7503 16.7455C11.5555 16.9536 11.4059 17.1997 11.3111 17.4685C11.2162 17.7372 11.1782 18.0227 11.1993 18.3068V20.9991C11.1993 21.2646 11.0937 21.5192 10.9058 21.7069C10.7179 21.8946 10.4631 22 10.1974 22C9.93165 22 9.67681 21.8946 9.48892 21.7069C9.30102 21.5192 9.19546 21.2646 9.19546 20.9991V20.4286C8.21094 20.5418 7.2137 20.41 6.29249 20.045C5.37128 19.6801 4.55468 19.0933 3.91536 18.3369C3.58674 17.973 3.19246 17.6742 2.75314 17.4561C2.62551 17.4232 2.50562 17.3656 2.40029 17.2864C2.29497 17.2073 2.20628 17.1082 2.13929 16.9948C2.07231 16.8814 2.02833 16.756 2.00988 16.6256C1.99143 16.4953 1.99887 16.3625 2.03176 16.235C2.06465 16.1076 2.12236 15.9878 2.20159 15.8826C2.28082 15.7774 2.38002 15.6888 2.49353 15.6218C2.60703 15.5549 2.73262 15.511 2.86312 15.4926C2.99362 15.4741 3.12647 15.4816 3.2541 15.5144C4.02482 15.7949 4.71349 16.2627 5.25793 16.8756C6.25985 17.8765 7.26176 18.7572 9.1654 18.3969C9.13193 17.8595 9.2104 17.3211 9.39585 16.8155C7.3319 16.2951 4.38626 14.8138 4.38626 9.80952C4.38362 8.62414 4.73223 7.46448 5.38818 6.47666C5.51002 6.29431 5.55668 6.07201 5.51843 5.85613C5.31597 4.77577 5.4308 3.65997 5.84906 2.64337C5.90589 2.50781 5.99191 2.38643 6.101 2.28783C6.21009 2.18923 6.33958 2.11584 6.48027 2.07288C6.82092 1.97279 8.04326 1.77262 10.3577 3.27391C12.2312 2.82352 14.185 2.82352 16.0586 3.27391C18.373 1.77262 19.5954 1.96278 19.926 2.07288C20.0667 2.11584 20.1962 2.18923 20.3053 2.28783C20.4143 2.38643 20.5004 2.50781 20.5572 2.64337C20.9763 3.66328 21.0911 4.78251 20.8878 5.86614C20.8673 5.96377 20.8665 6.06451 20.8854 6.16246C20.9044 6.26042 20.9426 6.35362 20.998 6.43663C21.6559 7.42729 22.0046 8.5907 22 9.7795C22 14.8539 19.0744 16.3251 16.9904 16.7855C17.174 17.3226 17.2489 17.8907 17.2108 18.457V20.9991C17.2113 21.2545 17.114 21.5004 16.9389 21.6864C16.7638 21.8725 16.5242 21.9847 16.269 22V22Z" fill="black"/>
</svg>

<svg
  width="24"
  height="24"
  viewBox="0 0 24 24"
  xmlns="http://www.w3.org/2000/svg"
>
  <path d="M16.269 22a1.003 1.003 0 0 1-1.002-1v-2.603a2.15 2.15 0 0 0-.541-1.662 1 1 0 0 1 .611-1.671c2.445-.29 4.7-1.07 4.7-5.305a4 4 0 0 0-.672-2.221 2.75 2.75 0 0 1-.41-2.062 3.71 3.71 0 0 0 0-1.411 7.668 7.668 0 0 0-2.095 1.09 1.002 1.002 0 0 1-.841.15 10.18 10.18 0 0 0-5.531 0 1.003 1.003 0 0 1-.842-.15 7.417 7.417 0 0 0-2.114-1.09 3.52 3.52 0 0 0 0 1.41 2.84 2.84 0 0 1-.43 2.083A4.07 4.07 0 0 0 6.43 9.79c0 3.893 1.884 4.934 4.71 5.294a1.002 1.002 0 0 1 .82.66 1 1 0 0 1-.21 1.002 2.061 2.061 0 0 0-.55 1.56V21a1 1 0 0 1-1.711.708 1 1 0 0 1-.294-.708v-.57a6.016 6.016 0 0 1-5.28-2.092 3.907 3.907 0 0 0-1.162-.88 1.004 1.004 0 0 1-.26-1.835 1.004 1.004 0 0 1 .761-.108c.77.28 1.46.749 2.004 1.362 1.002 1 2.004 1.881 3.907 1.52a3.89 3.89 0 0 1 .23-1.58c-2.063-.52-5.009-2.002-5.009-7.006a6 6 0 0 1 1.002-3.333.85.85 0 0 0 .13-.62 5.69 5.69 0 0 1 .331-3.214 1 1 0 0 1 .631-.57c.34-.1 1.563-.3 3.878 1.2 1.873-.45 3.827-.45 5.7 0 2.315-1.5 3.537-1.31 3.868-1.2a1.002 1.002 0 0 1 .631.57 5.71 5.71 0 0 1 .33 3.223.75.75 0 0 0 .111.57A6 6 0 0 1 22 9.78c0 5.074-2.926 6.545-5.01 7.005a4.28 4.28 0 0 1 .22 1.672v2.542A1 1 0 0 1 16.27 22z" />
</svg>
